X: 849
T: Alborada De Veiga
R: reel
M: 4/4
K: Dmajor
A2|:d4 cdBc|A4 F2A2|d4 cdBc|A6 F2|
GABA GFEG|F3G A2D2|EFGF EDCE|1 D6A2:|2 D6 F2||
GABA GFEG|F3G A2D2|EFGF EDCE|D6A2|
|:GAGF E2A2|FEFG A2D2|E2ED CDEC|D6A2:|

